packages/core/src/svgs/tokens/mono/ROUTE.svg

<svg width="24" height="24" viewBox="0 0 24 24" fill="none" xmlns="http://www.w3.org/2000/svg">
<path d="M8.14242 3.44509C8.08584 3.38704 8.05332 3.30975 8.05136 3.22872C8.04941 3.14769 8.07817 3.06893 8.13189 3.00822C8.39494 2.70412 8.71805 2.45772 9.08092 2.2845C9.44377 2.11127 9.83855 2.01495 10.2404 2.00161C10.6422 1.98826 11.0425 2.05816 11.4161 2.20694C11.7897 2.35571 12.1284 2.58014 12.411 2.86611L14.6216 5.06096C15.463 5.91685 15.9387 7.06617 15.9485 8.26627C15.9583 9.46635 15.5015 10.6233 14.6743 11.4928L11.8532 14.4245L14.7901 17.4616C15.361 18.0606 15.6802 18.8559 15.6821 19.6833C15.6841 20.5108 15.3686 21.3075 14.8007 21.9091C14.7735 21.9379 14.741 21.9607 14.7048 21.9763C14.6685 21.9919 14.6295 22 14.5901 22C14.5506 22 14.5117 21.9919 14.4755 21.9763C14.4393 21.9607 14.4066 21.9379 14.3796 21.9091L10.1741 17.6563C9.33504 16.7913 8.86668 15.6329 8.86865 14.4277C8.87061 13.2225 9.34275 12.0658 10.1846 11.2034L12.9848 8.38743L8.14242 3.43982V3.44509Z" fill="white"/>
<path d="M11.1057 10.2717L12.9794 8.38745C13.5606 8.94539 13.9263 9.69058 14.012 10.4917C14.0976 11.2927 13.8979 12.0983 13.4478 12.7666L11.8531 14.4194C11.253 13.814 10.1477 12.3666 11.0741 10.3454L11.1057 10.2717Z" fill="white"/>
</svg>

<svg xmlns="http://www.w3.org/2000/svg" width="24" height="24" fill="none" viewBox="0 0 24 24">
    <path fill="#fff" d="M8.142 3.445a.32.32 0 0 1-.01-.437 2.915 2.915 0 0 1 4.279-.142l2.21 2.195a4.626 4.626 0 0 1 .053 6.432l-2.82 2.932 2.936 3.037a3.23 3.23 0 0 1 .01 4.447.29.29 0 0 1-.42 0l-4.206-4.253a4.626 4.626 0 0 1 .01-6.453l2.8-2.816L8.143 3.44z"/>
    <path fill="#fff" d="m11.106 10.272 1.873-1.885a3.42 3.42 0 0 1 .469 4.38l-1.595 1.652c-.6-.605-1.705-2.052-.779-4.074z"/>
</svg>
